!!!COM: Mendelssohn, Felix
!!!CDT: 1809/02/03-1847/11/04
!!!OPR: Sechs vierstimmige Lieder
!!!OTL: Lerchengesang
!!!OPS: Op. 48
!!!ONM: Nr. 4
!!!OMD: Allegro vivace
**kern	**text	**dynam	**kern	**text	**dynam	**kern	**text	**dynam	**kern	**text	**dynam
*part4	*part4	*part4	*part3	*part3	*part3	*part2	*part2	*part2	*part1	*part1	*part1
*staff4	*staff4	*	*staff3	*staff3	*	*staff2	*staff2	*	*staff1	*staff1	*
*I"Bass	*	*	*I"Tenor	*	*	*I"Alto	*	*	*I"Soprano	*	*
*clefF4	*	*	*clefGv2	*	*	*clefG2	*	*	*clefG2	*	*
*k[f#]	*	*	*k[f#]	*	*	*k[f#]	*	*	*k[f#]	*	*
*G:	*	*	*G:	*	*	*G:	*	*	*G:	*	*
*M4/4	*	*	*M4/4	*	*	*M4/4	*	*	*M4/4	*	*
*met(c)	*	*	*met(c)	*	*	*met(c)	*	*	*met(c)	*	*
*MM132	*	*	*MM132	*	*	*MM132	*	*	*MM132	*	*
=1	=1	=1	=1	=1	=1	=1	=1	=1	=1	=1	=1
8r	.	.	8r	.	.	8b	Wie	f	8dd	Wie	f
=	=	=	=	=	=	=	=	=	=	=	=
1r	.	.	1r	.	.	4b	lieb-	.	4dd	lieb-	.
.	.	.	.	.	.	8g	-li-	.	8b	-li-	.
.	.	.	.	.	.	8a	-cher	.	8cc	-cher	.
.	.	.	.	.	.	4b	Klang!	.	4dd	Klang!	.
.	.	.	.	.	.	8r	.	.	8r	.	.
.	.	.	.	.	.	8b	o	.	8dd	o	.
=	=	=	=	=	=	=	=	=	=	=	=
1r	.	.	1r	.	.	4b	Ler-	.	8ddL	Ler-	.
.	.	.	.	.	.	.	.	.	8ggJ	.	.
.	.	.	.	.	.	8g	-che,	.	8b	-che,	.
.	.	.	.	.	.	8a	dein	.	8cc	dein	.
.	.	.	.	.	.	4b	Sang	.	4dd	Sang	.
.	.	.	.	.	.	8r	.	.	8r	.	.
.	.	.	.	.	.	8b	er	.	8dd	er	.
=	=	=	=	=	=	=	=	=	=	=	=
1r	.	.	1r	.	.	4cc	hebt	.	4ee	hebt	.
.	.	.	.	.	.	8b	sich,	.	8dd	sich,	.
.	.	.	.	.	.	8g	er	.	8b	er	.
.	.	.	.	.	.	4cc	schwingt	.	4ee	schwingt	.
.	.	.	.	.	.	8b	sich	.	8dd	sich	.
.	.	.	.	.	.	8g	in	.	8b	in	.
=	=	=	=	=	=	=	=	=	=	=	=
1r	.	.	1r	.	.	2d	Won-	.	(4.a	Won-	.
.	.	.	.	.	.	.	.	.	8dd)	.	.
.	.	.	.	.	.	4f#	-ne.	.	4dd	-ne.	.
.	.	.	.	.	.	8r	.	.	8r	.	.
.	.	.	.	.	.	8f#	Du	.	8a	Du	.
=	=	=	=	=	=	=	=	=	=	=	=
1r	.	.	1r	.	.	4f#	nimmst	.	4a	nimmst	.
.	.	.	.	.	.	8g	mich	.	8b	mich	.
.	.	.	.	.	.	8a	von	.	8cc	von	.
.	.	.	.	.	.	4.b	hier,	.	4.dd	hier,	.
.	.	.	.	.	.	8g	ich	.	8b	ich	.
=	=	=	=	=	=	=	=	=	=	=	=
1r	.	.	1r	.	.	4g	sin-	.	4b	sin-	.
.	.	.	.	.	.	8a	-ge	.	8cc	-ge	.
.	.	.	.	.	.	8b	mit	.	8dd	mit	.
.	.	.	.	.	.	4cc	dir,	.	4ee	dir,	.
.	.	.	.	.	.	4ee	wir	f	4gg	wir	f
=	=	=	=	=	=	=	=	=	=	=	=
1r	.	.	1r	.	.	4cc	stei-	.	4ee	stei-	.
.	.	.	.	.	.	8b	-gen	.	8dd	-gen	.
.	.	.	.	.	.	8cc	durch	.	8ee	durch	.
.	.	.	.	.	.	4a	Wol-	.	4cc	Wol-	.
.	.	.	.	.	.	8g	-ken	.	8b	-ken	.
.	.	.	.	.	.	8a	zur	.	8cc	zur	.
=	=	=	=	=	=	=	=	=	=	=	=
1r	.	.	1r	.	.	2f#	Son-	.	2a	Son-	.
.	.	.	.	.	.	4g	-ne,	.	4g	-ne,	.
.	.	.	.	.	.	4ee	wir	.	4gg	wir	.
=	=	=	=	=	=	=	=	=	=	=	=
1r	.	.	1r	.	.	4cc	stei-	.	4ee	stei-	.
.	.	.	.	.	.	8b	-gen	.	8dd	-gen	.
.	.	.	.	.	.	8cc	durch	.	8ee	durch	.
.	.	.	.	.	.	4a	Wol-	.	4cc	Wol-	.
.	.	.	.	.	.	8g	-ken	.	8b	-ken	.
.	.	.	.	.	.	8a	zur	.	8cc	zur	.
=	=	=	=	=	=	=	=	=	=	=	=
2r	.	.	2r	.	.	2d	Son-	.	2a	Son-	.
4r	.	.	4r	.	.	4g	-ne.	.	4g	-ne.	.
8r	.	.	8r	.	.	8r	.	.	8r	.	.
=!|:	=!|:	=!|:	=!|:	=!|:	=!|:	=!|:	=!|:	=!|:	=!|:	=!|:	=!|:
8B	Wie	f	8d	Wie	f	8r	.	.	8r	.	.
=	=	=	=	=	=	=	=	=	=	=	=
4B	lieb-	.	4d	lieb-	.	4r	.	.	4r	.	.
8G	-li-	.	8B	-li-	.	8r	.	.	8r	.	.
8A	-cher	.	8c	-cher	.	8g	Wie	f	8g	Wie	f
4B	Klang!	.	4d	Klang!	.	4g	lieb-	.	8gL	lieb-	.
.	.	.	.	.	.	.	.	.	8dJ	.	.
8r	.	.	8r	.	.	8g	-li-	.	8g	-li-	.
8B	o	.	8d	o	.	8g	-cher	.	8b	-cher	.
=	=	=	=	=	=	=	=	=	=	=	=
4B	Ler-	.	8dL	Ler-	.	4.g	Klang!	.	4.dd	Klang!	.
.	.	.	8gJ	.	.	.	.	.	.	.	.
8G	-che	.	8B	-che	.	.	.	.	.	.	.
8A	dein	.	8c	dein	.	8g	o	.	8dd	o	.
4B	Sang	.	4d	Sang	.	4g	Ler-	.	8ddL	Ler-	.
.	.	.	.	.	.	.	.	.	8gJ	.	.
8r	.	.	8r	.	.	8g	-che	.	8b	-che	.
8B	er	.	8d	er	.	8g	dein	.	8dd	dein	.
=	=	=	=	=	=	=	=	=	=	=	=
4c	hebt	.	4e	hebt	.	4.g	Sang,	.	2gg	Sang,	.
8B	sich,	.	8d	sich,	.	.	.	.	.	.	.
8G	er	.	8B	er	.	8g	er	.	.	.	.
4c	schwingt	.	4e	schwingt	.	8gL	schwingt	.	2gg	o	.
.	.	.	.	.	.	8aJ	.	.	.	.	.
8B	sich	.	8d	sich	.	8b	sich	.	.	.	.
8G	in	.	8B	in	.	8cc	in	.	.	.	.
=	=	=	=	=	=	=	=	=	=	=	=
2D	Won-	.	(4.A	Won-	.	2dd	Won-	.	[4ff#	Won-	.
.	.	.	.	.	.	.	.	.	(12ff#L]	.	.
.	.	.	.	.	.	.	.	.	12ee	.	.
.	.	.	8d)	.	.	.	.	.	.	.	.
.	.	.	.	.	.	.	.	.	12ddJ)	.	.
4F#	-ne,	.	4d	-ne,	.	4d	-ne!	.	4dd	-ne!	.
8r	.	.	8r	.	.	8r	.	.	8r	.	.
8F#	du	.	8A	du	.	8cc	du	.	8dd	du	.
=	=	=	=	=	=	=	=	=	=	=	=
4F#	nimmst	.	4A	nimmst	.	4cc	nimmst	.	4dd	nimmst	.
8G	mich	.	8B	mich	.	8b	mich	.	8dd	mich	.
8A	von	.	8c	von	.	8a	von	.	8dd	von	.
4.B	hier,	.	4.d	hier,	.	4.g	hier,	.	4.dd	hier,	.
*C:	*	*	*C:	*	*	*C:	*	*	*C:	*	*
8G	ich	.	8B	ich	.	8g	ich	.	8ffn	ich	.
=	=	=	=	=	=	=	=	=	=	=	=
4G	sin-	.	4B	sin-	.	4g	sin-	.	4ffn	sin-	.
8A	-ge	.	8c	-ge	.	8g	-ge	.	8ee	-ge	.
8B	mit	.	8d	mit	.	8g	mit	.	8dd	mit	.
4c	dir,	.	4e	dir,	.	2c	dir,	.	2cc	dir,	.
*G:	*	*	*G:	*	*	*G:	*	*	*G:	*	*
4e	wir	f	4g	wir	f	.	.	.	.	.	.
=	=	=	=	=	=	=	=	=	=	=	=
4c	stei-	.	4e	stei-	.	4r	.	.	4r	.	.
8B	-gen	.	8d	-gen	.	4g	wir	.	4g	wir	.
8c	durch	.	8e	durch	.	.	.	.	.	.	.
4A	Wol-	.	4c	Wol-	.	4f#	stei-	.	4a	stei-	.
8G	-ken	.	8B	-ken	.	8g	-gen	.	8b	-gen	.
8A	zur	.	8c	zur	.	8g	durch	.	8g	durch	.
=	=	=	=	=	=	=	=	=	=	=	=
2F#	Son-	.	2A	Son-	.	2d	Wol-	.	(8ccL	Wol-	.
.	.	.	.	.	.	.	.	.	8ee	.	.
.	.	.	.	.	.	.	.	.	8dd	.	.
.	.	.	.	.	.	.	.	.	8ccJ	.	.
4G	-ne,	.	4G	-ne,	.	2g	-ken,	.	8bL	.	.
.	.	.	.	.	.	.	.	.	8ddJ)	.	.
4e	wir	.	4g	wir	.	.	.	.	4gg	-ken,	.
=	=	=	=	=	=	=	=	=	=	=	=
4c	stei-	.	4e	stei-	.	4r	.	.	4r	.	.
8B	-gen	.	8d	-gen	.	4g	durch	.	4g	durch	.
8c	durch	.	8e	durch	.	.	.	.	.	.	.
4A	Wol-	.	4c	Wol-	.	4f#	Wol-	.	4a	Wol-	.
8G	-ken	.	8B	-ken	.	8g	-ken	.	8b	-ken	.
8A	zur	.	8c	zur	.	8g	zur	.	8g	zur	.
=	=	=	=	=	=	=	=	=	=	=	=
2D	Son-	.	2A	Son-	.	(2f#	Son-	.	(8ccL	Son-	.
.	.	.	.	.	.	.	.	.	8ee	.	.
.	.	.	.	.	.	.	.	.	8dd	.	.
.	.	.	.	.	.	.	.	.	8ccJ	.	.
4G	-ne.	.	4G	-ne.	.	8gL	.	.	8bL	.	.
.	.	.	.	.	.	8dJ)	.	.	8gJ)	.	.
!LO:TX:a:t=[segno]	!	!	!LO:TX:a:t=[segno]	!	!	!LO:TX:a:t=[segno]	!	!	!LO:TX:a:t=[segno]	!	!
4r	.	.	4r	.	.	8g	-ne!	.	8b	-ne!	.
.	.	.	.	.	.	8b	Wie	f	8dd	Wie	f
=	=	=	=	=	=	=	=	=	=	=	=
4r	.	.	4r	.	.	4b	lieb-	.	4dd	lieb-	.
8r	.	.	8r	.	.	8g	-li-	.	8b	-li-	.
8G	Wie	f	8G	Wie	f	8a	-cher	.	8cc	-cher	.
4G	lieb-	.	8GL	lieb-	.	4b	Klang!	.	4dd	Klang!	.
.	.	.	8DJ	.	.	.	.	.	.	.	.
8G	-li-	.	8G	-li-	.	8r	.	.	8r	.	.
8G	-cher	.	8B	-cher	.	8b	o	.	8dd	o	.
=	=	=	=	=	=	=	=	=	=	=	=
4.G	Klang!	.	4.d	Klang!	.	4b	Ler-	.	8ddL	Ler-	.
.	.	.	.	.	.	.	.	.	8ggJ	.	.
.	.	.	.	.	.	8g	-che,	.	8b	-che,	.
8G	o	.	8d	o	.	8a	dein	.	8cc	dein	.
4G	Ler-	.	8dL	Ler-	.	4b	Sang	.	4dd	Sang	.
.	.	.	8GJ	.	.	.	.	.	.	.	.
8G	-che,	.	8B	-che,	.	8r	.	.	8r	.	.
8G	dein	.	8d	dein	.	8b	er	.	8dd	er	.
=	=	=	=	=	=	=	=	=	=	=	=
4.G	Sang	.	2g	Sang	.	4cc	hebt	.	4ee	hebt	.
.	.	.	.	.	.	8b	sich,	.	8dd	sich,	.
8G	er	.	.	.	.	8g	er	.	8b	er	.
8GL	schwingt	.	2g	o	.	4cc	schwingt	.	4ee	schwingt	.
8AJ	.	.	.	.	.	.	.	.	.	.	.
8B	sich	.	.	.	.	8b	sich	.	8dd	sich	.
8c	in	.	.	.	.	8g	in	.	8b	in	.
=	=	=	=	=	=	=	=	=	=	=	=
2d	Won-	.	[4f#	Won-	.	2d	Won-	.	(4.a	Won-	.
.	.	.	(12f#L]	.	.	.	.	.	.	.	.
.	.	.	12e	.	.	.	.	.	.	.	.
.	.	.	.	.	.	.	.	.	8dd)	.	.
.	.	.	12dJ)	.	.	.	.	.	.	.	.
4D	-ne!	.	4d	-ne!	.	4f#	-ne,	.	4dd	-ne,	.
8r	.	.	8r	.	.	8r	.	.	8r	.	.
8c	du	.	8d	du	.	8f#	du	.	8a	du	.
=	=	=	=	=	=	=	=	=	=	=	=
4c	nimmst	.	4d	nimmst	.	4f#	nimmst	.	4a	nimmst	.
8B	mich	.	8d	mich	.	8g	mich	.	8b	mich	.
8A	von	.	8d	von	.	8a	von	.	8cc	von	.
4.G	hier,	.	4.d	hier,	.	4.b	hier,	.	4.dd	hier,	.
*C:	*	*	*C:	*	*	*C:	*	*	*C:	*	*
8G	ich	.	8fn	ich	.	8g	ich	.	8b	ich	.
=	=	=	=	=	=	=	=	=	=	=	=
4G	sin-	.	4fn	sin-	.	4g	sin-	.	4b	sin-	.
8G	-ge	.	8e	-ge	.	8a	-ge	.	8cc	-ge	.
8G	mit	.	8d	mit	.	8b	mit	.	8dd	mit	.
2C	dir,	.	2c	dir,	.	4cc	dir,	.	4ee	dir,	.
*G:	*	*	*G:	*	*	*G:	*	*	*G:	*	*
.	.	.	.	.	.	4ee	wir	.	4gg	wir	.
=	=	=	=	=	=	=	=	=	=	=	=
4r	.	.	4r	.	.	4cc	stei-	.	4ee	stei-	.
4G	wir	.	4G	wir	.	8b	-gen	.	8dd	-gen	.
.	.	.	.	.	.	8cc	durch	.	8ee	durch	.
4F#	stei-	.	4A	stei-	.	4a	Wol-	.	4cc	Wol-	.
8G	-gen	.	8B	-gen	.	8g	-ken	.	8b	-ken	.
8G	durch	.	8G	durch	.	8a	zur	.	8cc	zur	.
=	=	=	=	=	=	=	=	=	=	=	=
2D	Wol-	.	(8cL	Wol-	.	2f#	Son-	.	2a	Son-	.
.	.	.	8e	.	.	.	.	.	.	.	.
.	.	.	8d	.	.	.	.	.	.	.	.
.	.	.	8cJ	.	.	.	.	.	.	.	.
2G	-ken,	.	8BL	.	.	4g	-ne,	.	4g	-ne,	.
.	.	.	8dJ)	.	.	.	.	.	.	.	.
.	.	.	4g	-ken,	.	4ee	wir	.	4gg	wir	.
=	=	=	=	=	=	=	=	=	=	=	=
4r	.	.	4r	.	.	4cc	stei-	.	4ee	stei-	.
4G	durch	.	4G	durch	.	8b	-gen	.	8dd	-gen	.
.	.	.	.	.	.	8cc	durch	.	8ee	durch	.
4F#	Wol-	.	4A	Wol-	.	4a	Wol-	.	4cc	Wol-	.
8G	-ken	.	8B	-ken	.	8g	-ken	.	8b	-ken	.
8G	zur	.	8G	zur	.	8a	zur	.	8cc	zur	.
=	=	=	=	=	=	=	=	=	=	=	=
!	!	!	!	!	!	!	!	!	!LO:TX:t=wird repetirt ad lib. (bis \nhierher oder bis zum Stern)\ndann folgt gleich die Coda	!	!
(2F#	Son-	.	(8cL	Son-	.	2d	Son-	.	2a	Son-	.
.	.	.	8e	.	.	.	.	.	.	.	.
.	.	.	8d	.	.	.	.	.	.	.	.
.	.	.	8cJ	.	.	.	.	.	.	.	.
8GL	.	.	8BL	.	.	4g	-ne.	.	4g	-ne.	.
8DJ)	.	.	8GJ)	.	.	.	.	.	.	.	.
8G	-ne.	.	8B	-ne.	.	8r	.	.	8r	.	.
=:|!	=:|!	=:|!	=:|!	=:|!	=:|!	=:|!	=:|!	=:|!	=:|!	=:|!	=:|!
!	!	!	!	!	!	!	!	!	!LO:TX:a:B:t=Coda	!	!
8G	Zur	f	8d	Zur	f	8b	Zur	f	8dd	Zur	f
=	=	=	=	=	=	=	=	=	=	=	=
2G;	Son-	.	2d;	Son-	.	2b;	Son-	.	2dd;	Son-	.
4.GG;	-ne!	.	4.G;	-ne!	.	4.g;	-ne!	.	4.b;	-ne!	.
8c	zur	f	8g	zur	f	8cc	zur	f	8ee	zur	f
=	=	=	=	=	=	=	=	=	=	=	=
2c;	Son-	.	2g;	Son-	.	2cc;	Son-	.	2ee;	Son-	.
[2C	-ne!	.	[2e	-ne!	.	[2g	-ne!	.	[2cc	-ne!	.
=	=	=	=	=	=	=	=	=	=	=	=
4.C;]	.	.	4.e;]	.	.	4.g;]	.	.	4.cc;]	.	.
8r	.	.	8r	.	.	8r	.	.	8ee	wir	f
2r	.	.	2r	.	.	2r	.	.	8ddL	stei-	.
.	.	.	.	.	.	.	.	.	8gJ	.	.
.	.	.	.	.	.	.	.	.	8b	-gen	.
.	.	.	.	.	.	.	.	.	8dd	durch	.
=	=	=	=	=	=	=	=	=	=	=	=
1r	.	.	4r	.	.	4r	.	.	1gg	Wol-	.
.	.	.	8r	.	.	8r	.	.	.	.	.
.	.	.	8d	wir	f	8g	wir	f	.	.	.
.	.	.	8dL	stei-	.	8gL	stei-	.	.	.	.
.	.	.	8GJ	.	.	8BJ	.	.	.	.	.
.	.	.	8B	-gen	.	8d	-gen	.	.	.	.
.	.	.	8d	durch	.	8g	durch	.	.	.	.
=	=	=	=	=	=	=	=	=	=	=	=
4r	.	.	2g	Wol-	.	2b	Wol-	.	2..dd	-ken	.
8r	.	.	.	.	.	.	.	.	.	.	.
8G	durch	f	.	.	.	.	.	.	.	.	.
8GL	Wol-	.	4.d	-ken	.	4.b	-ken	.	.	.	.
8DJ	.	.	.	.	.	.	.	.	.	.	.
8G	-ken	.	.	.	.	.	.	.	.	.	.
8B	zur	.	8d	zur	.	8g	zur	.	8dd	zur	.
=	=	=	=	=	=	=	=	=	=	=	=
(2d	Son-	.	(2.d	Son-	.	(2b	Son-	.	(2dd	Son-	.
2D)	.	.	.	.	.	4a	.	.	4cc	.	.
.	.	.	4c)	.	.	4f#)	.	.	4a)	.	.
=	=	=	=	=	=	=	=	=	=	=	=
1G;	-ne!	.	1B;	-ne!	.	1g;	-ne!	.	1g;	-ne!	.
==	==	==	==	==	==	==	==	==	==	==	==
*-	*-	*-	*-	*-	*-	*-	*-	*-	*-	*-	*-
!!!system-decoration: ([s1,s2,s3,s4])
!!!RDF**kern: i = editorial accidental
!!!AGN: Choral
!!!YOR: https://mdz-nbn-resolving.de/details:bsb11328486
!!!YOO: München, Bayerische Staatsbibliothek
!!!URL-scan: https://www.digitale-sammlungen.de/de/view/bsb11328486?page=8
!!!EED: Wolfgang Drescher
!!!END: 2024/11/21
!!!ENC: Wolfgang Drescher
!!!EEV: 2024/11/21
!!!title: @{OPS} @{ONM}. @{OTL}